images/empty-winner.svg

<svg width="90" height="82" viewBox="0 0 90 82" fill="none" xmlns="http://www.w3.org/2000/svg">
<path fill-rule="evenodd" clip-rule="evenodd" d="M41.1332 60.9277L47.86 64.8165L50.0325 61.0487L55.6635 65L90 15.9399L68.8426 1.09345L65.5154 5.84741L55.4006 0L32 40.584H34.3552L56.1472 2.78986L74.9887 13.6822L47.1134 62.0267L41.1332 58.5695V60.9277ZM55.1637 62.1554L51.0563 59.2731L77.7749 12.9347L67.2886 6.8725L69.3424 3.93804L87.1591 16.4404L55.1637 62.1554Z" fill="white"/>
<path d="M41.0401 38.5892L26.7086 40.6791L26.9441 40.5172C31.5149 37.3569 32.2837 36.2413 32.5367 35.8741C33.3816 34.649 33.7816 33.2176 33.6669 31.8435C33.5459 30.389 32.8697 29.1694 31.7653 28.4083C30.8628 27.7866 29.7315 27.5395 28.5795 27.7075C26.9927 27.9389 25.5093 28.9047 24.5084 30.357C24.2559 30.7236 23.4856 31.8399 22.1672 37.2329C22.0188 37.8372 21.8805 38.4293 21.7549 38.9824C21.5266 38.5955 21.2817 38.1868 21.0271 37.7709C18.4018 33.4814 17.3909 32.7851 17.056 32.5569C15.9749 31.8076 14.6497 31.4953 13.3471 31.6827C12.6832 31.7743 12.0454 32.0015 11.4733 32.3501C10.9012 32.6988 10.4071 33.1615 10.0219 33.7093C9.63675 34.2571 9.36872 34.8783 9.23454 35.534C9.10037 36.1898 9.10295 36.8661 9.2421 37.5207C9.51545 38.8388 10.291 39.999 11.405 40.7564C11.6941 40.9547 12.4969 41.5059 15.9445 42.2466L2.86792 44.1534C2.58812 44.1942 2.33596 44.3444 2.16692 44.5708C1.99788 44.7973 1.92581 45.0815 1.96656 45.361L3.05586 52.831C3.09661 53.1104 3.24684 53.3622 3.47351 53.531C3.70018 53.6997 3.98471 53.7716 4.26452 53.7308L5.65028 53.5287L9.49067 79.8648C9.53142 80.1442 9.68166 80.396 9.90833 80.5648C10.135 80.7335 10.4195 80.8054 10.6993 80.7646L26.952 78.3946C27.2207 78.4607 27.5047 78.4193 27.7433 78.2792L43.9959 75.9092C44.2758 75.8684 44.5279 75.7183 44.6969 75.4918C44.866 75.2654 44.9381 74.9811 44.8973 74.7017L41.0572 48.3678L42.443 48.1657C42.7228 48.1249 42.975 47.9747 43.144 47.7483C43.313 47.5218 43.3851 47.2376 43.3444 46.9582L42.2551 39.4881C42.2348 39.3492 42.1872 39.2157 42.1151 39.0953C42.043 38.9748 41.9478 38.8698 41.8348 38.7862C41.7219 38.7027 41.5936 38.6423 41.4572 38.6085C41.3208 38.5747 41.179 38.5681 41.0401 38.5892ZM26.2625 31.5652C26.9173 30.6137 27.8973 29.9602 28.8838 29.8163C29.3216 29.7525 29.9661 29.7613 30.5539 30.1646C31.1233 30.5556 31.4736 31.2142 31.5412 32.0211C31.6164 32.9065 31.3441 33.8469 30.779 34.6675C30.0112 35.7823 26.5822 38.2387 23.6706 40.1574C24.4239 36.7564 25.4942 32.6801 26.2625 31.5652ZM11.3296 37.0915C11.249 36.7213 11.2461 36.3384 11.3211 35.967C11.3961 35.5955 11.5474 35.2436 11.7654 34.9335C11.9834 34.6233 12.2634 34.3617 12.5877 34.165C12.912 33.9683 13.2736 33.8409 13.6496 33.7907C14.4205 33.6816 15.2041 33.868 15.8429 34.3124C16.1345 34.5131 17.046 35.3589 19.1981 38.8753C19.6371 39.5915 20.0484 40.2917 20.3968 40.8963C19.707 40.7876 18.9068 40.6535 18.0765 40.5013C14.0188 39.7511 12.902 39.2043 12.6099 39.0037C11.9508 38.5564 11.4917 37.8707 11.3296 37.0915ZM4.23039 46.108L21.2063 43.6325L21.9883 48.9952L5.01239 51.4707L4.23039 46.108ZM7.76046 53.2221L22.2956 51.1026L25.9822 76.3839L11.4471 78.5034L7.76046 53.2221ZM42.6273 73.9566L28.0922 76.0762L24.4058 50.7959L38.9409 48.6764L42.6273 73.9566ZM41.0745 46.2142L24.0986 48.6896L23.3165 43.3259L40.2923 40.8504L41.0745 46.2142Z" fill="white"/>
</svg>

<svg width="90" height="82" fill="none" xmlns="http://www.w3.org/2000/svg"><path fill-rule="evenodd" clip-rule="evenodd" d="m41.133 60.928 6.727 3.889 2.172-3.768L55.664 65 90 15.94 68.843 1.093l-3.328 4.754L55.401 0 32 40.584h2.355L56.147 2.79 74.99 13.682 47.113 62.027l-5.98-3.458v2.359Zm14.03 1.227-4.107-2.882 26.719-46.338-10.486-6.063 2.053-2.934L87.16 16.44 55.164 62.155Z" fill="#fff"/><path d="M41.04 38.59 26.71 40.68l.235-.163c4.57-3.16 5.34-4.276 5.593-4.643.845-1.225 1.245-2.656 1.13-4.03-.121-1.455-.797-2.675-1.902-3.436-.902-.621-2.034-.869-3.186-.7-1.586.23-3.07 1.197-4.07 2.649-.253.367-1.023 1.483-2.342 6.876-.148.604-.287 1.196-.412 1.75a87.448 87.448 0 0 0-.728-1.212c-2.625-4.29-3.636-4.986-3.971-5.214a5.209 5.209 0 0 0-3.709-.874 4.884 4.884 0 0 0-3.325 2.026 4.87 4.87 0 0 0-.78 3.812 5.186 5.186 0 0 0 2.163 3.235c.29.199 1.092.75 4.54 1.49L2.867 44.154a1.067 1.067 0 0 0-.901 1.208l1.089 7.47a1.064 1.064 0 0 0 1.209.9l1.385-.202 3.84 26.336a1.064 1.064 0 0 0 1.21.9l16.252-2.37c.269.066.553.024.791-.116l16.253-2.37a1.066 1.066 0 0 0 .901-1.207l-3.84-26.334 1.386-.202a1.067 1.067 0 0 0 .901-1.208l-1.089-7.47a1.064 1.064 0 0 0-1.215-.899Zm-14.777-7.025c.654-.951 1.634-1.605 2.62-1.749.439-.063 1.083-.055 1.67.349.57.39.92 1.05.988 1.856.075.886-.197 1.826-.762 2.646-.768 1.115-4.197 3.572-7.108 5.49.753-3.4 1.823-7.477 2.591-8.592ZM11.33 37.092a2.738 2.738 0 0 1 1.258-2.927 2.75 2.75 0 0 1 1.062-.374c.77-.11 1.554.077 2.193.521.291.201 1.203 1.047 3.355 4.563.44.717.85 1.417 1.199 2.021-.69-.108-1.49-.242-2.32-.395-4.058-.75-5.175-1.297-5.467-1.497a3.066 3.066 0 0 1-1.28-1.912Zm-7.1 9.016 16.976-2.475.782 5.362-16.976 2.476-.782-5.363Zm3.53 7.114 14.536-2.12 3.686 25.282-14.535 2.12L7.76 53.221Zm34.867 20.735-14.535 2.12-3.686-25.281 14.535-2.12 3.686 25.28Zm-1.553-27.743L24.1 48.69l-.782-5.364 16.975-2.476.782 5.364Z" fill="#fff"/></svg>
